!!!OTL: Die schoene Magdalena
!!!OTL-incipit:Es waren's sich ein schoene Mannstoechterlein
!!!ARE: Europa, Mitteleuropa, Deutschland / France, Lothringen
!!!YOR: 6, S. 74
!!    1939 gedruckt in Kassel
!!!SCT: Q0125D
!!!TXL: @@DE
!!!YEM: Copyright 1995, estate of Helmut Schaffrath.
**kern	**text
*ICvox	*
*M6/8	*
*k[b-e-]	*
*g:	*
!LO:TX:a:t=19/20 Lothringen	!
{8d	Es
=1	=1
8.gL	waren's
16a	sich
8b-J	ein
8aL	schö-
8g	-ne
8f#J	Manns-
=2	=2
(8gL	-töch-
8a)	.
8b-J	-ter-
4a;}	-lein,
{8a	Mad-
=3	=3
8.ddL	-len-
16dd	-chen
8ddJ	wird
8ccL	sie
8b	es
8ccJ	ge-
=4	=4
4.dd	-nannt.
4r}	.
{8b-X/	So
=5	=5
8dd/L	hab
8dd	ich
8ddJ	in
8ee-/L	al-
8dd	-le
16cc	mei-
16b-J	-ne
=6	=6
(16a/L	Ta-
16b-)	.
8ccJ}	-ge,
{16b-/L	mei-
16aJ	-ne
8gL	Ta-
8b-J	-ge,
16b-L	mei-
16aJ	-ne
=7	=7
(8.gL	Ta-
16a	.
8b-J)	.
4a;}	-ge
{16gL	mein
16gJ	so
=8	=8
8ddL	schoe-
8dd	-nes
8ccJ	Mad-
8ddL	-len-
8b-	-chen
8aJ	ge-
=9	=9
4.g;	-sehn.
4r}	.
==	==
!!!AGN: Ballade, verbotene Liebe, Flucht
!! Kleinere Melodievarianten aus anderer Quelle abgedruckt.
!!    Vierte Zeile = refrainartig auf Wortwiederholungen.
!!!ONB: ESAC (Essen Associative Code) Database: BALLADE
!!!AMT: compound duple
!!!AIN: vox
!!!EED: Helmut Schaffrath
!!!EEV: 1.0
!!!source: Deutsche Volkslieder mit ihren Melodien Balladen. Herausgegeben vom Deutschen Volksliedarchiv. Sechster Band. Freiburg/Breisgau 1976.
!!!page: 74
!!!ENC: Anna Maria Matuszewska
!!!EEV: 2025/03/06
*-	*-
